X: 8361
T: Country Gardens
R: polka
M: 2/4
K: Gmajor
|:gg/f/ ee|d/e/d/c/ BB/c/|dG Ac|B>A G2:|
|:Gc ce|d/e/d/c/ BB/c/|dG Ac|B>A G2:|
|:gg/e/ f/e/d|gg/e/ f/e/d|gg/f/ ea/g/|fe dB/c/|
dg/f/ ee|d/e/d/c/ BB/c/|dG Ac|B>A G2:|

